X:1
T:THE YOUNG POSTILLION
M:4/4
Q:1/4=120
K:F
A8|d3ddd_d3/2d/2|e3_dA3e|fdFFG3/2_A/2A2|-A5Ad2|
-defed3/2AG3/2|-G3/2Bd3c/2B/2A3/2|-A3/2BAGF3E/2|
D7A|d3efed3/2A/2|-A/2G3/2Bd3/2e/2d/2A5/2|
-A/2BAGf3/2e/2d5/2|-d5/2||
